libs/ui/packages/crypto-icons/src/svg/USDT.svg

<svg width="24" height="24" viewBox="0 0 24 24" fill="none">
<path fill-rule="evenodd" clip-rule="evenodd" d="M13.473 12.5014V12.4999C13.3905 12.5059 12.9652 12.5314 12.0165 12.5314C11.259 12.5314 10.7257 12.5089 10.5382 12.4999V12.5021C7.62222 12.3739 5.44572 11.8661 5.44572 11.2586C5.44572 10.6519 7.62222 10.1441 10.5382 10.0136V11.9966C10.7287 12.0101 11.2747 12.0424 12.0292 12.0424C12.9345 12.0424 13.3882 12.0049 13.473 11.9974V10.0151C16.383 10.1449 18.5542 10.6526 18.5542 11.2586C18.5542 11.8661 16.383 12.3724 13.473 12.5014ZM13.473 9.80887V8.03437H17.5335V5.32837H6.47772V8.03437H10.5382V9.80812C7.23822 9.95962 4.75647 10.6136 4.75647 11.3966C4.75647 12.1796 7.23822 12.8329 10.5382 12.9851V18.6716H13.473V12.9836C16.7677 12.8321 19.2435 12.1789 19.2435 11.3966C19.2435 10.6144 16.7677 9.96112 13.473 9.80887Z" fill="#00A478"/>
</svg>

<svg width="24" height="24" viewBox="0 0 24 24" fill="none"><path fill="#00a478" fill-rule="evenodd" d="M13.473 12.501c-.083.006-.508.031-1.457.031a32 32 0 0 1-1.478-.031v.002c-2.916-.128-5.092-.636-5.092-1.243s2.176-1.115 5.092-1.245v1.983c.19.013.737.045 1.491.045.906 0 1.36-.037 1.444-.045v-1.982c2.91.13 5.081.638 5.081 1.244 0 .607-2.171 1.113-5.081 1.242m0-2.692V8.034h4.06V5.328H6.479v2.706h4.06v1.774c-3.3.152-5.782.806-5.782 1.589s2.482 1.436 5.782 1.588v5.687h2.935v-5.688c3.295-.152 5.77-.805 5.77-1.587 0-.783-2.475-1.436-5.77-1.588" clip-rule="evenodd"/></svg>
